X:42
T: Schoen Adelheid
N: Q2074E
O: Nordeuropa, Schweden
N: Schwedische Fassung der Ballade.
R: Ballade, Entfuehrung, Adelige als Dienstmagd, Wiederfinden
M: 4/4
L: 1/16
K: G
D2 | D3E=F2G2A4F2A2 | c4_B2A2G6
G2 | G2A2_B2c2d4c2B2 | =F2A2A6z4
A2 | d4c2_B2A4=F2A2 | c4_B2A2G6
D2 | G2A2_B2c2d4B2B2 | A4G6z4

@@@ Tune index: 1097
